!!!COM: Thomas Morley
!!!OPR: A Plaine and Easie Introduction to Practicall Musicke
!!!OTL: [Didactic example]
!!!YOR: A Plaine and Easie Introduction to Practicall Musicke
!!!YOR: London: Peter Short, 1597
!!!YOR: Reprinted by Farnborough, 1971.
!!!YOR: MS p.98.
!!!ONB: Canon at the fifth below after a minim with the cantus firmus above.
**kern	**kern	**kern
*M4/2	*M4/2	*M4/2
*k[]	*k[]	*k[]
*conseq	*guida	*CF
=1	=1	=1
2r	2g	1g
2c	2.e	.
2.A	.	1cc
.	8f	.
.	8g	.
.	2a	.
8B	.	.
8c	.	.
=2	=2	=2
2d	2f#	1b
2B	2g#	.
2c#	2a	1a
2d	2f#	.
=3	=3	=3
2B	4g	1g
.	4f	.
4c	4e	.
4B	4d	.
4A	4c	1cc
4G	4B	.
4F	4A	.
4E	4G	.
=4	=4	=4
4D	4F	1dd
4C	8E	.
.	8F	.
4BB	2.G	.
8AA	.	.
8BB	.	.
2.C	.	1ee
.	8A	.
.	8B	.
.	2c	.
8D	.	.
8E	.	.
=5	=5	=5
2F	2A	1dd
2D	2.d	.
2.G	.	1b
.	8e	.
.	8f	.
.	2g	.
8A	.	.
8B	.	.
=6	=6	=6
2c	2e	1a
2A	2f#	.
2B	4g	[1g
.	4G	.
4c	2g	.
4C	.	.
=7	=7	=7
0c	0c	0g]
==	==	==
*-	*-	*-
!!!CDT: ~1557//-~1603//
!!!CNT: English
!!!YEP: David Huron and Denis Collins
!!!YEN: Canada
!!!AIN: vox
!!!AGN: vox
!!!AST: polyphony
!!!RDT: 1995 July 23
!!!YED: 1995 August 31
!!!AFR: cantus firmus canon
!!!AMT: simple quadruple
!!!EEV: 1.0
